X:1
T:Title
%%score { ( 1 3 4 ) | ( 2 5 ) }
L:1/8
Q:1/4=93
M:6/8
K:D
V:1 treble nm="Grand Piano"
V:3 treble 
V:4 treble 
V:2 bass 
V:5 bass 
V:1
 [FA][DF][EG] [FA][GB][FA] | [DF]6 | [EG][CE][DF] [EG][FA][EG] | [DF]6 | %4
w: William~J.~Kirkpatrick * * * * *||||
 [FA][DF][EG] [FA][Fd][Ac] | B6 | A>AA [CGA][B,GB][Gc] | [Fd]6 | .[GB]6 | .[FA]6 | %10
w: ||||||
 A,A,A, A,[GB][FA] | [DF]6 | .[GB]6 | .[FA]6 | ccc [Gc][GB][Gc] | [Fd]6 |] %16
w: ||||||
V:2
 [D,A,][D,A,][D,A,] [D,A,][D,D][D,D] | [D,A,]6 | [A,,A,][A,,A,][A,,A,] [A,,A,][A,,A,][A,,A,] | %3
 [D,A,]6 | [D,A,][D,A,][D,A,] [D,A,][D,A,][F,D] | [G,DG]6 | %6
 [A,DF]>[A,DF][A,DF][K:bass] A,,A,,[A,,A,] | [D,A,]6 | G,,G,,G,, G,,G,,G,, | D,D,D, D,ED | %10
 A,,A,,A,, A,,[A,,A,][A,,A,] | [D,A,]D,D, .D,3 | G,,G,,G,, G,,G,,G,, | D,D,D, z D[D,A,] | %14
 [A,E][A,E][A,E] [A,,A,][A,,A,][A,,A,] | [D,A,]6 |] %16
V:3
 x6 | x6 | x6 | x6 | x6 | x6 | x6 | x6 | DDD D[DAc][DBd] | DA,A, A,GF | .[CE]6 | z A,A, .A,3 | %12
 DDD D[DAc][DBd] | DA,A, z F[Fd] | x6 | x6 |] %16
V:4
 x6 | x6 | x6 | x6 | x6 | x6 | x6 | x6 | x6 | x6 | x6 | x6 | x6 | z3 .A,3 | x6 | x6 |] %16
V:5
 x6 | x6 | x6 | x6 | x6 | x6 | x3[K:bass] x3 | x6 | x6 | x6 | x6 | x6 | x6 | z3 .D,3 | x6 | x6 |] %16

